public/images/knife-gold.svg

<svg enable-background="new 0 0 30 60" height="60" viewBox="0 0 30 60" width="30" xmlns="http://www.w3.org/2000/svg" xmlns:xlink="http://www.w3.org/1999/xlink"><linearGradient id="a" gradientUnits="userSpaceOnUse" x1=".5" x2="29.251" y1="30.0845" y2="30.0845"><stop offset=".0545" stop-color="#7e5a43"/><stop offset=".523" stop-color="#c96"/><stop offset=".9415" stop-color="#7e5a43"/></linearGradient><path d="m28.995 53.625c-1.102-2.783-14.711-40.548-14.711-40.548s-.996-2.664-1.809-3.441c.262-1.079.516-2.193.582-3.099.079-1.075.046-2.917-2.234-3.905-2.281-.987-3.379 1.116-3.933 1.796-.605-.54-1.285-3.292-1.285-3.292s-.524-1.197-1.154-.928c-.629.269-.55.897-.472 1.526.079.628 2.281 5.237 2.281 5.237s-5.008 21.487-5.244 28.909c-.221 6.952-.865 15.801-.271 19.314.58 3.428 3.103 4.809 4.65 4.806 2.125-.005 5.311-2.257 5.035-6.016-.29-3.945-1.232-9.605-.944-18.494.111-3.413.951-13.214 1.337-15.592.787 1.706 2.7 5.388 2.7 5.388s-1.992 2.304-1.206 4.549c.786 2.243 9.572 26.523 9.572 26.523s2.41 5.226 5.845 2.474c1.811-1.45 1.663-4.186 1.261-5.207zm-23.473 1.587c-.955 0-1.73-.871-1.73-1.944 0-1.074.775-1.945 1.73-1.945.956 0 1.73.871 1.73 1.945 0 1.073-.774 1.944-1.73 1.944zm3.833-45.277c-.5 0-.905-.456-.905-1.017 0-.562.405-1.018.905-1.018s.905.456.905 1.018c0 .561-.405 1.017-.905 1.017zm1.997 6.793c-.187-.508.798-4.669.798-4.669h.107l4.578 12.3-1.571.149c0 .001-3.726-7.272-3.912-7.78zm15.81 40.34c-1.756 1.53-2.967-.45-3.294-1.249-2.737-6.662-9.269-25.116-9.787-26.732-.518-1.615 1.129-2.633 1.129-2.633 2.264-.719 2.636.837 2.636.837s9.182 24.39 9.715 25.976c.533 1.587.905 2.665-.399 3.801z" fill="url(#a)"/></svg>

<?xml version="1.0" encoding="utf-8"?>
<!-- Generator: Adobe Illustrator 16.0.0, SVG Export Plug-In . SVG Version: 6.00 Build 0)  -->
<!DOCTYPE svg PUBLIC "-//W3C//DTD SVG 1.1//EN" "http://www.w3.org/Graphics/SVG/1.1/DTD/svg11.dtd">
<svg version="1.1" xmlns="http://www.w3.org/2000/svg" xmlns:xlink="http://www.w3.org/1999/xlink" x="0px" y="0px" width="30px"
	 height="60px" viewBox="0 0 30 60" enable-background="new 0 0 30 60" xml:space="preserve">
<g id="Layer_1" display="none">
	<rect x="-35" y="-70" display="inline" width="100" height="200"/>
</g>
<g>
	<linearGradient id="SVGID_1_" gradientUnits="userSpaceOnUse" x1="0.5" y1="30.0845" x2="29.251" y2="30.0845">
		<stop  offset="0.0545" style="stop-color:#7E5A43"/>
		<stop  offset="0.523" style="stop-color:#CC9966"/>
		<stop  offset="0.9415" style="stop-color:#7E5A43"/>
	</linearGradient>
	<path fill="url(#SVGID_1_)" d="M28.995,53.625c-1.102-2.783-14.711-40.548-14.711-40.548s-0.996-2.664-1.809-3.441
		c0.262-1.079,0.516-2.193,0.582-3.099c0.079-1.075,0.046-2.917-2.234-3.905C8.542,1.645,7.444,3.748,6.89,4.428
		c-0.605-0.54-1.285-3.292-1.285-3.292S5.081-0.061,4.451,0.208c-0.629,0.269-0.55,0.897-0.472,1.526
		c0.079,0.628,2.281,5.237,2.281,5.237S1.252,28.458,1.016,35.88c-0.221,6.952-0.865,15.801-0.271,19.314
		c0.58,3.428,3.103,4.809,4.65,4.806c2.125-0.005,5.311-2.257,5.035-6.016c-0.29-3.945-1.232-9.605-0.944-18.494
		c0.111-3.413,0.951-13.214,1.337-15.592c0.787,1.706,2.7,5.388,2.7,5.388s-1.992,2.304-1.206,4.549
		c0.786,2.243,9.572,26.523,9.572,26.523s2.41,5.226,5.845,2.474C29.545,57.382,29.397,54.646,28.995,53.625z M5.522,55.212
		c-0.955,0-1.73-0.871-1.73-1.944c0-1.074,0.775-1.945,1.73-1.945c0.956,0,1.73,0.871,1.73,1.945
		C7.252,54.341,6.478,55.212,5.522,55.212z M9.355,9.935c-0.5,0-0.905-0.456-0.905-1.017c0-0.562,0.405-1.018,0.905-1.018
		c0.5,0,0.905,0.456,0.905,1.018C10.26,9.479,9.855,9.935,9.355,9.935z M11.352,16.728c-0.187-0.508,0.798-4.669,0.798-4.669h0.107
		l4.578,12.3l-1.571,0.149C15.264,24.509,11.538,17.236,11.352,16.728z M27.162,57.068c-1.756,1.53-2.967-0.45-3.294-1.249
		c-2.737-6.662-9.269-25.116-9.787-26.732c-0.518-1.615,1.129-2.633,1.129-2.633c2.264-0.719,2.636,0.837,2.636,0.837
		s9.182,24.39,9.715,25.976C28.094,54.854,28.466,55.932,27.162,57.068z"/>
</g>
</svg>
